src/pos-icons/grid-off.svg

<svg height="24" viewBox="0 0 24 24" width="24" xmlns="http://www.w3.org/2000/svg"><path d="m0 2.77 1.28-1.27 21.22 21.22-1.27 1.28-2-2h-15.23c-1.08 0-2-.9-2-2v-15.23zm10 1.23v3.68l-2-2v-1.68h-1.68l-2-2h15.68a2 2 0 0 1 2 2v15.7l-2-2v-1.7h-1.68l-2-2h3.68v-4h-4v3.68l-2-2v-1.68h-1.68l-2-2h3.68v-4zm6 0v4h4v-4zm0 16h1.23l-1.23-1.23zm-12-12h1.23l-1.23-1.23zm6 6h1.23l-1.23-1.23zm4 6v-3.23l-.77-.77h-3.23v4zm-6 0v-4h-4v4zm0-6v-3.23l-.77-.77h-3.23v4z"/></svg>

<?xml version="1.0" encoding="UTF-8"?><!DOCTYPE svg PUBLIC "-//W3C//DTD SVG 1.1//EN" "http://www.w3.org/Graphics/SVG/1.1/DTD/svg11.dtd"><svg xmlns="http://www.w3.org/2000/svg" xmlns:xlink="http://www.w3.org/1999/xlink" version="1.1" id="mdi-grid-off" width="24" height="24" viewBox="0 0 24 24"><path d="M0,2.77L1.28,1.5L22.5,22.72L21.23,24L19.23,22H4C2.92,22 2,21.1 2,20V4.77L0,2.77M10,4V7.68L8,5.68V4H6.32L4.32,2H20A2,2 0 0,1 22,4V19.7L20,17.7V16H18.32L16.32,14H20V10H16V13.68L14,11.68V10H12.32L10.32,8H14V4H10M16,4V8H20V4H16M16,20H17.23L16,18.77V20M4,8H5.23L4,6.77V8M10,14H11.23L10,12.77V14M14,20V16.77L13.23,16H10V20H14M8,20V16H4V20H8M8,14V10.77L7.23,10H4V14H8Z" /></svg>
